X: 10092
T: RODNEY SUTTON'S TUNE
C: Bob McQuillen 30 Oct 93
B: Bob's Note Book 10 #92
%R: reel
Z: 2020 John Chambers <jc:trillian.mit.edu>
M: C
L: 1/8
K: D
|:F2FD EDB,D | G2GA BABd | A2AB dBAF | DEFD EDB,D |\
| E2ED EFDE | F2FA BABd | A2AB dBAF | ABde fdd2 :|
|:d2A2 defe | d2B2 defe | d2A2 defe | dBAF ABde |\
| d2A2 defe | d2B2 defe | d2dB A2dB | AFDF E2D2 :|
%%begintext align
%% As you've gone through this book,
%% you've already read my rants about the Fiddle Puppets dance group. And I
%% expect that my words don't mean much to someone who hasn't seen them perform.
%% But I can tell you that Rodney Sutton has to be one of the best cloggers I ever saw --
%% you've just got to see him all wound up and running to know what I'm
%% talking about. He's not the youngest in the group, but he sure as
%% hell is spectacular, and I just love watching him and the rest of
%% them when I'm down in West Virginia enjoying my yearly visit at
%% Augusta. Thanks loads, Rodney, and thanks again to you all - see you
%% next year!
%%endtext

%%sep 1 1 500

%%sep 1 1 500

